!!!OTL: 345. Abendlied, wenn man aus dem Wirthshaus geht.
!!!COM: A. Methfessel
!!!ODT: 1820
!!!ARE: Europa, Mitteleuropa, Deutschland
!!!SCT: B0345
!!!TXL: @@DE
!!!YEM: Copyright 1995, estate of Helmut Schaffrath.
**kern	**text
*ICvox	*
*Ivox	*
*clefG2	*
*M2/4	*
*k[]	*
*C:	*
!LO:TX:a:t=Vergnügt.	!
{8g	Jetʒt
=1	=1
8cc	ſchwingen
8g	.
8a	wir
8g	den
=2	=2
4g	Hut.
8r}	.
{8cc	Der
=3	=3
8b	Wein
8cc	der
(16eeq	.
8dd)	war
(16ccq	.
8b)	ſo
=4	=4
4cc	gut.
8r}	.
{16ccL	Der
16ddJ	.
=5	=5
8ee	Kai-
8ee	-ſer
8ee	trinkt
16ffL	Bur-
16eeJ	.
=6	=6
8dd	-gun-
8dd	-der
8dd}	Wein,
{16eeL	der
16ddJ	.
=7	=7
8cc	ſchön-
8cc	-ſte
8cc	Jun-
16ddL	-ker
16ccJ	.
=8	=8
8b	ſchenkt
8b	ihn
8b}	ein
{16ccL	und
16bJ	.
=9	=9
8a	ſchmeckt
8g	ihm
8a	doch
8g	nicht
=10	=10
(8aL	beſ-
8bJ)	.
8cc}	-ſer,
{8dd	nicht
=11	=11
(4ee	beſ-
4dd)	.
=12	=12
4cc;	-ſer.
8r}	.
==	==
!!!AGN: Trink - Lied, Moral
!!!GTL: Wein- und Trinklieder
!!!ONB: ESAC (Essen Associative Code) Database: BOEHME
!!!AMT: simple duple
!!!AIN: vox
!!!EED: Helmut Schaffrath
!!!EEV: 1.0
!!@@COMMENT:"Gedicht von Joh. Peter Hebel (1806)."
!!@@END:
!!!Text: J. P. Hebel
!!!URL-scan: https://archive.org/details/BoehmeVtLieder1895/page/n289/mode/2up
!!!ENC: Anna Maria Matuszewska
!!!EEV: 2024/05/07
*-	*-
